assets/illustrations/spots/folder-6.svg

<svg width="500" height="516" viewBox="0 0 500 516" fill="none" xmlns="http://www.w3.org/2000/svg"><path d="M291.912 11.42c32.514-14.767 73.244-15.922 104.859.714 31.616 16.636 48.212 66.133 43.124 101.743-3.101 21.614-15.209 42.073-13.032 63.796 3.21 31.816 34.472 51.752 52.701 77.875 24.487 35.115 24.242 84.997 2.204 121.707-22.038 36.71-63.693 59.616-106.11 61.871-42.417 2.255-84.834-15.042-116.395-43.805-19.045-17.296-33.166-40.037-54.007-54.996-53.219-38.223-144.555 9.074-179.054-24.254-46.254-44.629-18.23-114.667 11.509-135.703 61.38-43.42 101.838 2.392 155.764-20.184 19.889-8.249 39.478-21.146 48.13-41.082 8.163-19.029 4.408-79.36 50.335-107.738" fill="#B9CBD3" style="mix-blend-mode:luminosity" opacity=".16"/><g opacity=".1" filter="url(#folder-6__a)"><path d="M430.745 486.998c0 7.181-71.708 13.002-160.165 13.002s-160.166-5.821-160.166-13.002c0-7.181 71.709-13.002 160.166-13.002s160.165 5.821 160.165 13.002Z" fill="#0A0F1A"/></g><path d="M388.851 94.563H198.336c-12.141 0-21.982 9.842-21.982 21.982V131.2a7.327 7.327 0 0 0 7.327 7.328h77.379a7.445 7.445 0 0 1 6.976 4.924l7.972 24.181a22.173 22.173 0 0 0 20.81 14.86h106.688a7.328 7.328 0 0 0 7.328-7.328v-58.62c0-12.14-9.842-21.982-21.983-21.982Z" fill="#FFCD6B"/><path d="M403.508 167.838H296.819a7.561 7.561 0 0 1-6.976-4.924l-7.972-24.166a22.16 22.16 0 0 0-20.81-14.875h-77.378c-12.141 0-21.983 9.842-21.983 21.983V277.75c0 12.141 9.842 21.983 21.983 21.983h219.825c12.14 0 21.982-9.842 21.982-21.983v-87.93c0-12.14-9.842-21.982-21.982-21.982Z" fill="#FCDA97"/><path d="M300.924 241.113H110.408c-12.14 0-21.982 9.842-21.982 21.983v14.654a7.328 7.328 0 0 0 7.328 7.328h77.378a7.445 7.445 0 0 1 6.976 4.924l7.972 24.181a22.173 22.173 0 0 0 20.81 14.86h106.688a7.328 7.328 0 0 0 7.328-7.328v-58.619c0-12.141-9.842-21.983-21.982-21.983Z" fill="#B9CBD3"/><path d="M146.489 128.401a7.334 7.334 0 0 0-1.598-2.389l-29.31-29.31a7.327 7.327 0 0 0-10.361 10.361l16.809 16.809h-11.621c-20.234 0-36.638 16.403-36.638 36.638v58.619a7.328 7.328 0 0 0 14.656 0V160.51c0-12.141 9.842-21.983 21.982-21.983h11.622l-16.81 16.795a7.327 7.327 0 0 0-.18 10.361 7.327 7.327 0 0 0 10.541 0l29.31-29.31a7.328 7.328 0 0 0 1.598-7.987v.015Zm271.676 185.986a7.327 7.327 0 0 0-7.327 7.328v58.619c0 12.141-9.842 21.983-21.983 21.983h-11.621l16.795-16.795a7.328 7.328 0 0 0-10.361-10.361l-29.31 29.31a7.327 7.327 0 0 0 0 10.376l29.31 29.31a7.328 7.328 0 0 0 10.361-10.36l-16.794-16.825h11.621c20.234 0 36.637-16.403 36.637-36.638v-58.619a7.328 7.328 0 0 0-7.328-7.328Z" fill="#607B99"/><path d="M315.578 314.387H208.889a7.562 7.562 0 0 1-6.976-4.924l-7.972-24.166a22.158 22.158 0 0 0-20.81-14.875H95.753c-12.14 0-21.983 9.842-21.983 21.983V424.3c0 12.14 9.843 21.982 21.983 21.982h219.825c12.14 0 21.982-9.842 21.982-21.982v-87.93c0-12.141-9.842-21.983-21.982-21.983Z" fill="#D2DFE6"/><defs><filter id="folder-6__a" x="94.414" y="457.996" width="352.331" height="58.005" filterUnits="userSpaceOnUse" color-interpolation-filters="sRGB"><feFlood flood-opacity="0" result="BackgroundImageFix"/><feBlend in="SourceGraphic" in2="BackgroundImageFix" result="shape"/><feGaussianBlur stdDeviation="8" result="effect1_foregroundBlur_10272_1671"/></filter></defs></svg>

<svg width="500" height="516" viewBox="0 0 500 516" fill="none" xmlns="http://www.w3.org/2000/svg">
<g opacity="0.1" filter="url(#filter0_f_10272_1671)">
<path d="M430.745 486.997C430.745 494.178 359.037 500 270.58 500C182.123 500 110.414 494.178 110.414 486.997C110.414 479.816 182.123 473.995 270.58 473.995C359.037 473.995 430.745 479.816 430.745 486.997Z" fill="#0A0F1A"/>
</g>
<path d="M283.154 32.9016C157.592 14.7306 41.0725 101.789 22.9015 227.351C4.73044 352.914 91.7885 469.433 217.351 487.604C342.914 505.775 459.433 418.717 477.604 293.154C495.775 167.592 408.717 51.0726 283.154 32.9016Z" fill="#B2DFFD" fill-opacity="0.5"/>
<path d="M388.852 94.5627H198.336C186.196 94.5627 176.354 104.405 176.354 116.545V131.2C176.354 135.247 179.635 138.528 183.682 138.528H261.06C264.189 138.54 266.976 140.508 268.036 143.452L276.008 167.633C279.102 176.49 287.436 182.441 296.818 182.493H403.507C407.553 182.493 410.834 179.212 410.834 175.165V116.545C410.834 104.405 400.992 94.5627 388.852 94.5627Z" fill="#0D4FC1"/>
<path d="M403.508 167.838H296.819C293.701 167.792 290.931 165.837 289.843 162.914L281.871 138.748C278.786 129.882 270.449 123.923 261.062 123.873H183.683C171.543 123.873 161.701 133.715 161.701 145.856V277.75C161.701 289.891 171.543 299.733 183.683 299.733H403.508C415.649 299.733 425.49 289.891 425.49 277.75V189.82C425.49 177.68 415.649 167.838 403.508 167.838Z" fill="#0096FA"/>
<path d="M300.924 241.113H110.408C98.2678 241.113 88.4258 250.955 88.4258 263.096V277.75C88.4258 281.797 91.7067 285.078 95.7535 285.078H173.132C176.261 285.09 179.048 287.058 180.108 290.002L188.08 314.183C191.174 323.04 199.508 328.991 208.89 329.043H315.578C319.625 329.043 322.906 325.762 322.906 321.715V263.096C322.906 250.955 313.064 241.113 300.924 241.113Z" fill="#C7C7C7"/>
<path d="M146.489 128.401C146.119 127.507 145.577 126.695 144.892 126.012L115.582 96.702C112.671 93.8903 108.032 93.9714 105.22 96.882C102.478 99.7219 102.478 104.223 105.22 107.063L122.029 123.872H110.408C90.1741 123.872 73.771 140.275 73.771 160.51V219.129C73.771 223.176 77.0519 226.457 81.0987 226.457C85.1456 226.457 88.4264 223.176 88.4264 219.129V160.51C88.4264 148.369 98.2684 138.527 110.409 138.527H122.03L105.22 155.322C102.31 158.133 102.229 162.772 105.04 165.683C107.852 168.594 112.49 168.675 115.402 165.863C115.463 165.804 115.523 165.744 115.582 165.683L144.892 136.373C146.991 134.279 147.622 131.126 146.489 128.386V128.401Z" fill="#454545"/>
<path d="M418.166 314.387C414.119 314.387 410.838 317.668 410.838 321.715V380.334C410.838 392.475 400.996 402.317 388.856 402.317H377.234L394.029 385.522C396.841 382.612 396.76 377.973 393.85 375.161C391.01 372.418 386.508 372.418 383.668 375.161L354.358 404.471C351.493 407.329 351.487 411.969 354.345 414.834C354.349 414.838 354.354 414.843 354.358 414.847L383.668 444.157C386.579 446.969 391.218 446.888 394.03 443.978C396.773 441.138 396.773 436.636 394.03 433.797L377.235 416.972H388.856C409.09 416.972 425.494 400.569 425.494 380.334V321.715C425.494 317.668 422.213 314.387 418.166 314.387Z" fill="#454545"/>
<path d="M315.578 314.387H208.889C205.771 314.341 203.001 312.386 201.913 309.463L193.941 285.297C190.855 276.431 182.519 270.472 173.131 270.422H95.753C83.6125 270.422 73.7705 280.264 73.7705 292.405V424.3C73.7705 436.44 83.6125 446.282 95.753 446.282H315.578C327.718 446.282 337.56 436.44 337.56 424.3V336.37C337.56 324.229 327.718 314.387 315.578 314.387Z" fill="#E0E0E0"/>
<defs>
<filter id="filter0_f_10272_1671" x="94.4141" y="457.995" width="352.331" height="58.0046" filterUnits="userSpaceOnUse" color-interpolation-filters="sRGB">
<feFlood flood-opacity="0" result="BackgroundImageFix"/>
<feBlend mode="normal" in="SourceGraphic" in2="BackgroundImageFix" result="shape"/>
<feGaussianBlur stdDeviation="8" result="effect1_foregroundBlur_10272_1671"/>
</filter>
</defs>
</svg>
